src/assets/duotone/SmsTracking.svg

<?xml version="1.0" encoding="UTF-8"?>
<svg width="24" height="24" viewBox="0 0 24 24" xmlns="http://www.w3.org/2000/svg">
 <path d="m6 13c-2.76 0-5 2.23-5 5s2.24 5 5 5 5-2.24 5-5-2.23-5-5-5zm-2.04 2.96h2.04c0.38 0 0.67999 0.31 0.67999 0.68s-0.30999 0.68-0.67999 0.68h-2.04c-0.38 0-0.67999-0.31-0.67999-0.68s0.29999-0.68 0.67999-0.68zm4.08 4.08h-4.09c-0.38 0-0.68002-0.31-0.68002-0.68s0.31002-0.68 0.68002-0.68h4.09c0.38 0 0.67999 0.31 0.67999 0.68s-0.29999 0.68-0.67999 0.68z"/>
 <path d="m17 3h-10c-3 0-5 1.5-5 5v3.14c0 0.73 0.75001 1.19 1.42 0.9 1.1-0.48 2.35-0.66 3.66-0.45 2.62 0.43 4.76 2.5 5.29 5.1 0.15 0.76 0.17 1.5 0.07 2.21-0.08 0.59 0.4 1.11 0.99 1.11h3.57c3 0 5-1.5 5-5v-7c0-3.51-2-5.01-5-5.01z" opacity=".4"/>
 <path d="m12 11.87c-0.84 0-1.69-0.26-2.34-0.79l-3.13-2.5c-0.32-0.26-0.38-0.73-0.12-1.05s0.72999-0.38 1.05-0.12l3.13 2.5c0.76 0.61003 2.05 0.61003 2.81 0l3.13-2.5c0.32-0.26 0.8-0.21 1.05 0.12 0.26 0.32 0.21 0.8-0.12 1.05l-3.13 2.5c-0.64 0.53-1.49 0.79-2.33 0.79z"/>
</svg>

<svg width="24" height="24" viewBox="0 0 24 24"  xmlns="http://www.w3.org/2000/svg">
<path d="M6 13C3.24 13 1 15.23 1 18C1 20.77 3.24 23 6 23C8.76 23 11 20.76 11 18C11 15.24 8.77 13 6 13ZM3.95999 15.96H6C6.38 15.96 6.67999 16.27 6.67999 16.64C6.67999 17.01 6.37 17.32 6 17.32H3.95999C3.57999 17.32 3.28 17.01 3.28 16.64C3.28 16.27 3.57999 15.96 3.95999 15.96ZM8.04001 20.04H3.95001C3.57001 20.04 3.26999 19.73 3.26999 19.36C3.26999 18.99 3.58001 18.68 3.95001 18.68H8.04001C8.42001 18.68 8.72 18.99 8.72 19.36C8.72 19.73 8.42001 20.04 8.04001 20.04Z" />
<path opacity="0.4" d="M17 3H7C4 3 2 4.5 2 8V11.14C2 11.87 2.75001 12.33 3.42001 12.04C4.52001 11.56 5.76999 11.38 7.07999 11.59C9.69999 12.02 11.84 14.09 12.37 16.69C12.52 17.45 12.54 18.19 12.44 18.9C12.36 19.49 12.84 20.01 13.43 20.01H17C20 20.01 22 18.51 22 15.01V8.00999C22 4.49999 20 3 17 3Z" />
<path d="M11.9998 11.87C11.1598 11.87 10.3098 11.61 9.65978 11.08L6.52978 8.57997C6.20978 8.31997 6.14978 7.84997 6.40978 7.52997C6.66978 7.20997 7.13977 7.14997 7.45977 7.40997L10.5898 9.90997C11.3498 10.52 12.6398 10.52 13.3998 9.90997L16.5298 7.40997C16.8498 7.14997 17.3298 7.19997 17.5798 7.52997C17.8398 7.84997 17.7898 8.32997 17.4598 8.57997L14.3298 11.08C13.6898 11.61 12.8398 11.87 11.9998 11.87Z" />
</svg>
